X:1
T:Um fado para guitarra (1897)
T:Um fado
T:para guitarra
T:António Augusto Correia de Aguiar
T:Galáxia Sonora Coimbrã 2020 (A. Caetano)
T:Galáxia Sonora Coimbrã 2020 (A. Caetano)
C:António Augusto Correia de Aguiar
Z:Galáxia Sonora Coimbrã 2020 (A. Caetano)
%%score 1 { 2 | 3 }
L:1/8
M:4/4
K:C
V:1 treble-8 nm="Voz"
V:2 treble nm="Piano"
V:3 bass 
V:1
 z2[Q:1/4=110] | z8 | z8 | z8 | z8 | z4 z2 z e |: e3 c c B2 A | d3 B ^G3 E | d3 B B ^G2 E | %9
w: |||||Quan-|do a nou- te ra- la'as|tran- an- ças Por|so- bre'o mun- do dor-|
 e4 e3 e | e3 c c B2 A | d3 B ^G3 E | d3 B B ^G2 E | e4 e3 e | d3 e f d2 B | c/d/e- e2 z2 c2 | %16
w: men- te, Quan-|do a nou- te ra- la'as|tran- an- ças Por|so- bre'o mun- do dor-|men- te, Sus-|pi- ram as se- re-|na- a- tas _ Ou-|
 B3 c d B2 ^G | A2 A2 z2 z e | d3 e f d2 f | e2 e2 z2 c2 | B3 c d f2 e |1 A2 A2 z4 | z4 z2 z e :|2 %23
w: ve \- se um can- to do-|len- te, Sus-|pi- ram as se- re-|na- tas Ou-|ve\-se um can- to do-|len- te.|Quan-|
 A2 A2 z2 z2 | z8 | z8 |] %26
w: |||
V:2
 z [ee'] | [ee']3 [cc'] [cc'] [Bb]2 [Aa] | [^GBd]7 [dd'] | [ee']3 [Bb] [dd'] [Bb]2 [cc'] | %4
 [Aa]4 z4 | z4 z2 z2 |: z8 | z8 | z8 | z8 | z8 | z8 | z8 | z8 | z8 | z8 | z8 | z8 | z8 | z8 | z8 |1 %21
 z8 | z4 z2 z e :|2 [EA]4 [Ace]2 [Ace]2 | z4 [^GBd]2 [EG]2 | [CEA]4 z2 z2 |] %26
V:3
 z z | [E,A,C]8 | [E,^G,D]8 | [E,^G,D]8 | [A,,A,]A,CA, [CE]!fermata!FEC | [A,,A,]A,CA, [CE]2 A,2 |: %6
 [A,,A,]A,CA, [CE]2 A,2 | [B,,B,]^G,B,G, [B,D]2 G,2 | [E,,B,]^G,B,G, [B,D]2 G,2 | %9
 [A,,A,]A,CA, [CE]2 A,2 | [A,,A,]A,CA, [CE]2 A,2 | [B,,B,]^G,B,G, [B,D]2 G,2 | %12
 [E,,B,]^G,B,G, [B,D]2 G,2 | [A,,A,]A,CA, [CE]2 A,2 | [B,,B,]B,DB, [DF]2 B,2 | %15
 [A,,A,]A,CA, [CE]2 A,2 | [E,,B,]^G,B,G, [B,D]2 G,2 | [A,,A,]A,CA, [CE]2 A,2 | %18
 [B,,B,]B,DB, [DF]2 B,2 | [A,,A,]A,CA, [CE]2 A,2 | [E,,B,]^G,B,G, [B,D]2 G,2 |1 %21
 [A,,A,]A,CA, [CE]FEC | [A,,A,]A,CA, [CE]2 A,2 :|2 [A,,A,]A,CA, [CE]2 A,2 | %24
 [E,,E,]^G,B,G, [B,D]2 G,2 | [A,,E,A,]4 [A,,,A,,]- [A,,,A,,]3 |] %26

